!!!COM: Beethoven
!!!OTL: 7 Variations on a Quartet by Winter 
!!!Variation: Variation 6 a 
**harm	**function	**kern	**kern
*M2/4	*M2/4	*staff2	*staff1
*f:	*f:	*clefG2	*clefG2
*	*tb8	*k[b-e-a-d-]	*k[b-e-a-d-]
*	*	*M2/4	*M2/4
*	*	*f:	*f:
4i	4T	4r	(4cc
=	=	=301	=301
*	*	*^	*
2i	2T	8FFL	[2FF	8a-L
.	.	8FJ	.	8fJ
.	.	8FL	.	8a-L
.	.	8FJ	.	8ccJ)
=	=	=302	=302	=302
4.V65	4.T	8FL	2FF_	(4.e 4.b- 4.dd-
.	.	8FJ	.	.
.	.	8FL	.	.
8i	8T	8FJ	.	8f) 8a- 8cc
=	=	=303	=303	=303
8V43	8T	8FL	2FF_	(8gL 8b- 8ee
8i6	8T	8FJ	.	8a-J 8cc 8ff
8V2	8T	8FL	.	8b-L 8dd- 8gg
8i6	8T	8FJ	.	8a-J) 8cc 8ff
=	=	=304	=304	=304
*	*	*	*	*^
4V7/V	4T	8FL	2FF_	4ff	4.g 4.b-
.	.	8FJ	.	.	.
4V	4T	8FL	.	8eeL	.
.	.	8FJ	.	(8ccJ	8r
*	*	*	*	*v	*v
=	=	=305	=305	=305
2i	2T	8FL	2FF]	8a-L
.	.	8FJ	.	8fJ
.	.	8FL	.	8a-L
.	.	8FJ	.	8ccJ)
=	=	=306	=306	=306
*	*	*	*	*^
4V65	4T	8FFL	2FF	4.dd-	4.e 4.b-
.	.	8FJ	.	.	.
4i	4T	8FL	.	.	.
.	.	8FJ	.	[8a- [8cc	(8f
*	*	*v	*v	*	*
=	=	=307	=307	=307
4iio6	4P	8BB-L	8a-L] 8cc]	4d-
.	.	8BB-J	8gJ 8b-	.
8C64	8D	8CL	8fL 8a-	8cL
8V7	8D	8CJ	8eJ 8g	8B-J)
*	*	*	*v	*v
=	=	=308	=308
4.i	4.T	8FFL	(4e 4g (4B-
.	.	8CJ	.
.	.	8FL	8f) 8A-)
*-	*-	*-	*-
